X: 742
P: Longways for as many as will
M: C|
L: 1/4
K: D
[|\
d2 e2 | f>g fe | d>e e>d | eA FA |\
d2 e2 | f>g fe | d/e/d/e/ e>d | d4 |]
[|\
f2 g2 | a>b af | fd dA | dA/G/ FD |\
f2 g2 | a>b ag | fd d(g/f/) | d4 |]
[|\
d2 e2 | f>g fe | d>e e>d | eA FA |\
d2 e2 | f>g fe | d/e/d/e/ e>d | d4 |]
[|\
ec/d/ ea | ec/d/ ea | e(d/c/) B>A | A4 |]

